Papirus/24x24/mimetypes/text-x-haskell.svg

<svg xmlns="http://www.w3.org/2000/svg" width="24" height="24" version="1.1">
 <path style="opacity:0.2" d="m 5,2.5 c -0.554,0 -1,0.446 -1,1 v 18 c 0,0.554 0.446,1 1,1 h 14 c 0.554,0 1,-0.446 1,-1 V 8.5 L 14.5,8 14,2.5 Z"/>
 <path style="fill:#e4e4e4" d="M 5,2 C 4.446,2 4,2.446 4,3 V 21 C 4,21.554 4.446,22 5,22 H 19 C 19.554,22 20,21.554 20,21 V 8 L 14.5,7.5 14,2 Z"/>
 <path style="opacity:0.2;fill:#ffffff" d="M 5 2 C 4.446 2 4 2.446 4 3 L 4 3.5 C 4 2.946 4.446 2.5 5 2.5 L 14 2.5 L 14 2 L 5 2 z"/>
 <path style="opacity:0.2" d="m 14,2.5 v 5 c 0,0.5525 0.448,1 1,1 h 5 z"/>
 <path style="fill:#fafafa" d="M 14,2 V 7 C 14,7.5525 14.448,8 15,8 H 20 Z"/>
 <path style="fill:#8b82a4" d="M 7.5,10 10,14.5 7.5,19 H 9 L 11.5,14.5 9,10 Z"/>
 <path style="fill:#5f5088" d="M 10,10 12.5,14.5 10,19 h 1.5 l 1.75,-3 1.75,3 h 1.5 l -5,-9 z"/>
 <path style="fill:#8b82a4" d="m 14.166,13 0.557,1 H 17 v -1 z"/>
 <path style="fill:#8b82a4" d="m 15.277,15 0.557,1 H 17 v -1 z"/>
</svg>

<svg xmlns="http://www.w3.org/2000/svg" width="24" height="24" version="1.1">
 <path style="opacity:0.2" d="m 5,2.5 c -0.554,0 -1,0.446 -1,1 v 18 c 0,0.554 0.446,1 1,1 h 14 c 0.554,0 1,-0.446 1,-1 V 8.5 L 14.5,8 14,2.5 Z"/>
 <path style="fill:#e4e4e4" d="M 5,2 C 4.446,2 4,2.446 4,3 V 21 C 4,21.554 4.446,22 5,22 H 19 C 19.554,22 20,21.554 20,21 V 8 L 14.5,7.5 14,2 Z"/>
 <path style="opacity:0.2;fill:#ffffff" d="M 5 2 C 4.446 2 4 2.446 4 3 L 4 3.5 C 4 2.946 4.446 2.5 5 2.5 L 14 2.5 L 14 2 L 5 2 z"/>
 <path style="opacity:0.2" d="m 14,2.5 v 5 c 0,0.5525 0.448,1 1,1 h 5 z"/>
 <path style="fill:#fafafa" d="M 14,2 V 7 C 14,7.5525 14.448,8 15,8 H 20 Z"/>
 <path style="opacity:0.5" d="M 7.5 10 L 10 14.5 L 7.5 19 L 9 19 L 11.5 14.5 L 9 10 L 7.5 10 z M 10 10 L 12.5 14.5 L 10 19 L 11.5 19 L 13.25 16 L 15 19 L 16.5 19 L 11.5 10 L 10 10 z M 14.166 13 L 14.723 14 L 17 14 L 17 13 L 14.166 13 z M 15.277 15 L 15.834 16 L 17 16 L 17 15 L 15.277 15 z"/>
</svg>
